modules/hawcons-stroke/icons/clipboard-move.svg

<?xml version="1.0" encoding="UTF-8" standalone="no"?>
<svg width="32px" height="32px" viewBox="0 0 32 32" version="1.1" xmlns="http://www.w3.org/2000/svg" xmlns:xlink="http://www.w3.org/1999/xlink" xmlns:sketch="http://www.bohemiancoding.com/sketch/ns">
    <!-- Generator: Sketch 3.0.3 (7891) - http://www.bohemiancoding.com/sketch -->
    <title>icon 30 clipboard move</title>
    <desc>Created with Sketch.</desc>
    <defs></defs>
    <g id="Page-1" stroke="none" stroke-width="1" fill="none" fill-rule="evenodd" sketch:type="MSPage">
        <g id="icon-30-clipboard-move" sketch:type="MSArtboardGroup" fill="#929292">
            <path d="M21,23.0500091 L21,20.3747258 L12.6983777,12 L16,12 L16,11 L11,11 L11,16 L12,16 L12,12.7071068 L20,20.7071068 L20,23.0500091 C18.8588798,23.2816442 18,24.290521 18,25.5 C18,26.8807119 19.1192881,28 20.5,28 C21.8807119,28 23,26.8807119 23,25.5 C23,24.290521 22.1411202,23.2816442 21,23.0500091 L21,23.0500091 L21,23.0500091 Z M13,22.2071068 L11.232233,23.9748737 L10.5251263,23.267767 L12.2928932,21.5 L10.5251263,19.732233 L11.232233,19.0251263 L13,20.7928932 L14.767767,19.0251263 L15.4748737,19.732233 L13.7071068,21.5 L15.4748737,23.267767 L14.767767,23.9748737 L13,22.2071068 L13,22.2071068 L13,22.2071068 Z M21,14.2071068 L19.232233,15.9748737 L18.5251263,15.267767 L20.2928932,13.5 L18.5251263,11.732233 L19.232233,11.0251263 L21,12.7928932 L22.767767,11.0251263 L23.4748737,11.732233 L21.7071068,13.5 L23.4748737,15.267767 L22.767767,15.9748737 L21,14.2071068 L21,14.2071068 L21,14.2071068 Z M14,5 L14,3.99791312 C14,2.89826062 14.897616,2 16.0048815,2 L16.9951185,2 C18.1061002,2 19,2.89449617 19,3.99791312 L19,5 L21.0044225,5 C21.555163,5 22,5.44724809 22,5.99895656 L22,7.00104344 C22,7.55733967 21.5542648,8 21.0044225,8 L11.9955775,8 C11.444837,8 11,7.55275191 11,7.00104344 L11,5.99895656 C11,5.44266033 11.4457352,5 11.9955775,5 L14,5 L14,5 Z M13.0000005,4 L12.0027601,4 C10.8982867,4 10.0026278,4.89128252 10.0000058,6 L8.99742191,6 C7.89427625,6 7,6.88976324 7,8.00359486 L7,28.9964051 C7,30.10296 7.89092539,31 8.99742191,31 L24.0025781,31 C25.1057238,31 26,30.1102368 26,28.9964051 L26,8.00359486 C26,6.89703997 25.1090746,6 24.0025781,6 L22.9999942,6 L22.9999942,6 C22.9973726,4.89497907 22.1048269,4 20.9972399,4 L19.9999995,4 C19.9990959,2.34299141 18.6497738,1 16.9907455,1 L16.0092545,1 C14.3478441,1 13.0008998,2.33812603 13.0000005,4 L13.0000005,4 L13.0000005,4 Z M22.9999942,7 L24.0000398,7 C24.5452911,7 25,7.44908998 25,8.00307055 L25,28.9969294 C25,29.5610822 24.5523026,30 24.0000398,30 L8.9999602,30 C8.45470893,30 8,29.55091 8,28.9969294 L8,8.00307055 C8,7.43891776 8.44769743,7 8.9999602,7 L10.0000058,7 C10.0026274,8.10502093 10.8951731,9 12.0027601,9 L20.9972399,9 C22.1017133,9 22.9973722,8.10871748 22.9999942,7 L22.9999942,7 L22.9999942,7 Z M16.5,5 C16.7761424,5 17,4.77614239 17,4.5 C17,4.22385761 16.7761424,4 16.5,4 C16.2238576,4 16,4.22385761 16,4.5 C16,4.77614239 16.2238576,5 16.5,5 L16.5,5 Z M20.5,27 C21.3284271,27 22,26.3284271 22,25.5 C22,24.6715729 21.3284271,24 20.5,24 C19.6715729,24 19,24.6715729 19,25.5 C19,26.3284271 19.6715729,27 20.5,27 L20.5,27 Z" id="clipboard-move" sketch:type="MSShapeGroup"></path>
        </g>
    </g>
</svg>

<svg width="32" height="32" viewBox="0 0 32 32" xmlns="http://www.w3.org/2000/svg"><path d="M21 23.05v-2.675L12.698 12H16v-1h-5v5h1v-3.293l8 8v2.343a2.5 2.5 0 1 0 1 0zm-8-.843l-1.768 1.768-.707-.707 1.768-1.768-1.768-1.768.707-.707L13 20.793l1.768-1.768.707.707-1.768 1.768 1.768 1.768-.707.707L13 22.207zm8-8l-1.768 1.768-.707-.707 1.768-1.768-1.768-1.768.707-.707L21 12.793l1.768-1.768.707.707-1.768 1.768 1.768 1.768-.707.707L21 14.207zM14 5V3.998C14 2.898 14.898 2 16.005 2h.99C18.106 2 19 2.894 19 3.998V5h2.004c.551 0 .996.447.996.999v1.002a.994.994 0 0 1-.996.999h-9.008A.997.997 0 0 1 11 7.001V5.999c0-.556.446-.999.996-.999H14zm-1-1h-.997c-1.105 0-2 .891-2.003 2H8.997C7.894 6 7 6.89 7 8.004v20.992C7 30.103 7.89 31 8.997 31h15.006C25.106 31 26 30.11 26 28.996V8.004C26 6.897 25.11 6 24.003 6H23a2.002 2.002 0 0 0-2.003-2H20c0-1.657-1.35-3-3.01-3h-.98A3.002 3.002 0 0 0 13 4zm10 3h1c.545 0 1 .45 1 1.003v20.994A.995.995 0 0 1 24 30H9c-.545 0-1-.45-1-1.003V8.003A.995.995 0 0 1 9 7h1c.003 1.105.895 2 2.003 2h8.994c1.105 0 2-.891 2.003-2zm-6.5-2a.5.5 0 1 0 0-1 .5.5 0 0 0 0 1zm4 22a1.5 1.5 0 1 0 0-3 1.5 1.5 0 0 0 0 3z" fill="#929292" fill-rule="evenodd"/></svg>
